X: 1
T: The Bunch Of Green Rushes
R: reel
M: 4/4
L: 1/8
K: Dmix
d|:cAGA ~=F3d|cAGc Ad ~d2|cAGA =F2 zg|^fdec Ad~d2:|
|:Ad ~d2 cAGA|~=FGAc- cAG2|AddA cAGA|1 cdeg fdec:|2 cdeg- gece||
|:d3^f afdf|c3e gece|d3f afdf|cAGc Addc|
|d3f afdf|c3B cdeg|afge fded|cAGc Add2||

